images/vector.svg

<svg width="30" height="20" viewBox="0 0 30 20" fill="none" xmlns="http://www.w3.org/2000/svg">
<path id="Vector" fill-rule="evenodd" clip-rule="evenodd" d="M0 18.8889C0 18.5942 0.143669 18.3116 0.3994 18.1032C0.655132 17.8948 1.00198 17.7778 1.36364 17.7778H28.6364C28.998 17.7778 29.3449 17.8948 29.6006 18.1032C29.8563 18.3116 30 18.5942 30 18.8889C30 19.1836 29.8563 19.4662 29.6006 19.6746C29.3449 19.8829 28.998 20 28.6364 20H1.36364C1.00198 20 0.655132 19.8829 0.3994 19.6746C0.143669 19.4662 0 19.1836 0 18.8889ZM0 10C0 9.70532 0.143669 9.4227 0.3994 9.21433C0.655132 9.00595 1.00198 8.88889 1.36364 8.88889H28.6364C28.998 8.88889 29.3449 9.00595 29.6006 9.21433C29.8563 9.4227 30 9.70532 30 10C30 10.2947 29.8563 10.5773 29.6006 10.7857C29.3449 10.994 28.998 11.1111 28.6364 11.1111H1.36364C1.00198 11.1111 0.655132 10.994 0.3994 10.7857C0.143669 10.5773 0 10.2947 0 10ZM0 1.11111C0 0.816426 0.143669 0.533811 0.3994 0.325437C0.655132 0.117063 1.00198 0 1.36364 0H28.6364C28.998 0 29.3449 0.117063 29.6006 0.325437C29.8563 0.533811 30 0.816426 30 1.11111C30 1.4058 29.8563 1.68841 29.6006 1.89679C29.3449 2.10516 28.998 2.22222 28.6364 2.22222H1.36364C1.00198 2.22222 0.655132 2.10516 0.3994 1.89679C0.143669 1.68841 0 1.4058 0 1.11111Z" fill="black"/>
</svg>

<svg xmlns="http://www.w3.org/2000/svg" width="30" height="20" fill="none"><path fill="#000" fill-rule="evenodd" d="M0 18.889c0-.295.144-.577.4-.786.255-.208.602-.325.964-.325h27.272c.362 0 .709.117.965.325.255.209.399.491.399.786 0 .295-.144.577-.4.786a1.535 1.535 0 0 1-.964.325H1.364c-.362 0-.709-.117-.965-.325-.255-.209-.399-.491-.399-.786ZM0 10c0-.295.144-.577.4-.786.255-.208.602-.325.964-.325h27.272c.362 0 .709.117.965.325.255.209.399.491.399.786 0 .295-.144.577-.4.786a1.535 1.535 0 0 1-.964.325H1.364c-.362 0-.709-.117-.965-.325C.144 10.577 0 10.295 0 10Zm0-8.889C0 .816.144.534.4.325.654.117 1.001 0 1.363 0h27.272c.362 0 .709.117.965.325.255.209.399.491.399.786 0 .295-.144.577-.4.786a1.535 1.535 0 0 1-.964.325H1.364c-.362 0-.709-.117-.965-.325C.144 1.688 0 1.406 0 1.11Z" clip-rule="evenodd"/></svg>
